packages/katcn/src/icons/svg/location-solid.svg

<svg width="24" height="24" viewBox="0 0 24 24" fill="none" xmlns="http://www.w3.org/2000/svg">
<path d="M18.2 3.40003C16.3 1.70003 13.8 0.800025 11.2 1.10003C7.20001 1.40003 3.90001 4.30003 3.20001 8.00003C2.70001 10.4 3.20001 12.8 4.70001 14.8L9.80001 21.9C10.2 22.6 11.1 23 12 23C12.9 23 13.8 22.6 14.3 21.8L19.4 14.7C20.5 13.2 21 11.5 21 9.70003C21 7.30003 20 5.00003 18.2 3.40003Z" fill="black"/>
<path d="M12 13.1C13.8777 13.1 15.4 11.5778 15.4 9.69999C15.4 7.82222 13.8777 6.29999 12 6.29999C10.1222 6.29999 8.59998 7.82222 8.59998 9.69999C8.59998 11.5778 10.1222 13.1 12 13.1Z" fill="white"/>
</svg>

<svg xmlns="http://www.w3.org/2000/svg" fill="none" viewBox="0 0 24 24"><path fill="#000" d="M18.2 3.4c-1.9-1.7-4.4-2.6-7-2.3-4 .3-7.3 3.2-8 6.9-.5 2.4 0 4.8 1.5 6.8l5.1 7.1c.4.7 1.3 1.1 2.2 1.1s1.8-.4 2.3-1.2l5.1-7.1c1.1-1.5 1.6-3.2 1.6-5 0-2.4-1-4.7-2.8-6.3"/><path fill="#fff" d="M12 13.1a3.4 3.4 0 1 0 0-6.8 3.4 3.4 0 0 0 0 6.8"/></svg>
